COLOR/action 16/16/mail-reply-sender.svg

<svg height="16" width="16" xmlns="http://www.w3.org/2000/svg"><g fill="#fb7c38" transform="translate(-52.000046 -480)"><path d="m66.066406 484.17969v.5 4.20508c0 .53143-.08551.85349-.197265 1.05859-.111755.20509-.253097.32376-.492188.44922-.432948.22719-1.281888.32617-2.201172.32617h-5.451172v-2.1543l-.71289.33399c-.720225.33787-1.452136.70895-2.197266 1.11523h-.002v.002c-.736321.40625-1.448068.82192-2.132812 1.2461l-.679641.41987.675781.42774c.686016.43363 1.399115.85279 2.136719 1.25976v.002h.002c.74575.40662 1.479365.77547 2.201172 1.10547l.707031.32422v-2.14648h5.453125c.996978 0 2.109909-.0284 3.101563-.54883 1.022667-.53673 1.722609-1.67702 1.722609-3.22075v-4.70508z" fill="#1a7fd4"/><g transform="translate(52.000046 480)"><path d="m14.066406 4.1796875v.5h1.933594v-.5zm-8.3417966 4.3847656-.7128906.3339844c-.720225.33787-1.4521357.7089544-2.1972657 1.1152345h-.0019531v.001953c-.736321.40625-1.4480685.821914-2.1328125 1.246094l-.6796875.419922.40039062.253906.27929688-.173828c.684744-.42418 1.3964915-.839844 2.1328125-1.246094v-.001953h.0019531c.74513-.40628 1.4770407-.7773645 2.1972657-1.1152345l.7128906-.3339844zm8.3417966.3203125c0 .53143-.08551.8534938-.197265 1.0585938-.111755.2050896-.253097.3237586-.492188.4492186-.432948.22719-1.281888.326172-2.201172.326172h-5.4511716v.5h5.4511716c.919284 0 1.768224-.098982 2.201172-.326172.239091-.12546.380433-.244129.492188-.449219.111755-.2051.197265-.5271634.197265-1.0585934z" fill="#f1f1f1" opacity=".3"/><path d="m16 8.3847656c0 1.54373-.699989 2.6839734-1.722656 3.2207034-.991654.52043-2.104585.548828-3.101563.548828h-5.4531248v.5h5.4531248c.996978 0 2.109909-.028398 3.101563-.548828 1.022667-.53673 1.722656-1.676973 1.722656-3.2207034zm-15.59960938 3.0507814-.40039062.246094.67578125.427734c.68601605.43363 1.39911475.852796 2.13671875 1.259766v.001953h.0019531c.74575.40662 1.4793649.775468 2.2011719 1.105468l.7070312.324219v-.5l-.7070312-.324219c-.721807-.33-1.4554219-.698848-2.2011719-1.105468h-.0019531v-.001953c-.737604-.40697-1.4507027-.826136-2.13671875-1.259766z" fill="#44382f" opacity=".2"/></g></g></svg>

<?xml version="1.0" encoding="UTF-8" standalone="no"?>
<svg
   xmlns:dc="http://purl.org/dc/elements/1.1/"
   xmlns:cc="http://creativecommons.org/ns#"
   xmlns:rdf="http://www.w3.org/1999/02/22-rdf-syntax-ns#"
   xmlns:svg="http://www.w3.org/2000/svg"
   xmlns="http://www.w3.org/2000/svg"
   xmlns:sodipodi="http://sodipodi.sourceforge.net/DTD/sodipodi-0.dtd"
   xmlns:inkscape="http://www.inkscape.org/namespaces/inkscape"
   height="16"
   width="16"
   version="1.1"
   id="svg8"
   sodipodi:docname="mail-reply-sender.svg"
   inkscape:version="0.92.4 (5da689c313, 2019-01-14)">
  <metadata
     id="metadata14">
    <rdf:RDF>
      <cc:Work
         rdf:about="">
        <dc:format>image/svg+xml</dc:format>
        <dc:type
           rdf:resource="http://purl.org/dc/dcmitype/StillImage" />
        <dc:title></dc:title>
      </cc:Work>
    </rdf:RDF>
  </metadata>
  <defs
     id="defs12" />
  <sodipodi:namedview
     pagecolor="#ffffff"
     bordercolor="#666666"
     borderopacity="1"
     objecttolerance="10"
     gridtolerance="10"
     guidetolerance="10"
     inkscape:pageopacity="0"
     inkscape:pageshadow="2"
     inkscape:window-width="1920"
     inkscape:window-height="1016"
     id="namedview10"
     showgrid="false"
     inkscape:zoom="79.00336"
     inkscape:cx="7.9999995"
     inkscape:cy="6.5099023"
     inkscape:window-x="0"
     inkscape:window-y="27"
     inkscape:window-maximized="1"
     inkscape:current-layer="g6" />
  <g
     fill="#fb7c38"
     transform="translate(-52.000046 -480)"
     id="g6">
    <path
       style="color:#000000;font-style:normal;font-variant:normal;font-weight:normal;font-stretch:normal;font-size:medium;line-height:normal;font-family:sans-serif;font-variant-ligatures:normal;font-variant-position:normal;font-variant-caps:normal;font-variant-numeric:normal;font-variant-alternates:normal;font-feature-settings:normal;text-indent:0;text-align:start;text-decoration:none;text-decoration-line:none;text-decoration-style:solid;text-decoration-color:#000000;letter-spacing:normal;word-spacing:normal;text-transform:none;writing-mode:lr-tb;direction:ltr;text-orientation:mixed;dominant-baseline:auto;baseline-shift:baseline;text-anchor:start;white-space:normal;shape-padding:0;clip-rule:nonzero;display:inline;overflow:visible;visibility:visible;opacity:1;isolation:auto;mix-blend-mode:normal;color-interpolation:sRGB;color-interpolation-filters:linearRGB;solid-color:#000000;solid-opacity:1;vector-effect:none;fill:#1a7fd4;fill-opacity:1;fill-rule:nonzero;stroke:none;stroke-width:1.00044608;stroke-linecap:butt;stroke-linejoin:miter;stroke-miterlimit:4;stroke-dasharray:none;stroke-dashoffset:0;stroke-opacity:1;color-rendering:auto;image-rendering:auto;shape-rendering:auto;text-rendering:auto;enable-background:accumulate"
       d="m 66.066406,484.17969 v 0.5 4.20508 c 0,0.53143 -0.08551,0.85349 -0.197265,1.05859 -0.111755,0.20509 -0.253097,0.32376 -0.492188,0.44922 -0.432948,0.22719 -1.281888,0.32617 -2.201172,0.32617 h -5.451172 v -2.1543 l -0.71289,0.33399 c -0.720225,0.33787 -1.452136,0.70895 -2.197266,1.11523 h -0.002 v 0.002 c -0.736321,0.40625 -1.448068,0.82192 -2.132812,1.2461 L 52,491.68164 l 0.675781,0.42774 c 0.686016,0.43363 1.399115,0.85279 2.136719,1.25976 v 0.002 h 0.002 c 0.74575,0.40662 1.479365,0.77547 2.201172,1.10547 l 0.707031,0.32422 v -2.14648 h 5.453125 c 0.996978,0 2.109909,-0.0284 3.101563,-0.54883 C 67.300058,491.56879 68,490.4285 68,488.88477 v -4.70508 z"
       id="path2"
       inkscape:connector-curvature="0"
       sodipodi:nodetypes="ccsccscccccccccccccccscscc" />
    <path
       style="color:#000000;font-style:normal;font-variant:normal;font-weight:normal;font-stretch:normal;font-size:medium;line-height:normal;font-family:sans-serif;font-variant-ligatures:normal;font-variant-position:normal;font-variant-caps:normal;font-variant-numeric:normal;font-variant-alternates:normal;font-feature-settings:normal;text-indent:0;text-align:start;text-decoration:none;text-decoration-line:none;text-decoration-style:solid;text-decoration-color:#000000;letter-spacing:normal;word-spacing:normal;text-transform:none;writing-mode:lr-tb;direction:ltr;text-orientation:mixed;dominant-baseline:auto;baseline-shift:baseline;text-anchor:start;white-space:normal;shape-padding:0;clip-rule:nonzero;display:inline;overflow:visible;visibility:visible;opacity:0.3;isolation:auto;mix-blend-mode:normal;color-interpolation:sRGB;color-interpolation-filters:linearRGB;solid-color:#000000;solid-opacity:1;vector-effect:none;fill:#f1f1f1;fill-opacity:1;fill-rule:nonzero;stroke:none;stroke-width:1.00044608;stroke-linecap:butt;stroke-linejoin:miter;stroke-miterlimit:4;stroke-dasharray:none;stroke-dashoffset:0;stroke-opacity:1;color-rendering:auto;image-rendering:auto;shape-rendering:auto;text-rendering:auto;enable-background:accumulate"
       d="M 14.066406 4.1796875 L 14.066406 4.6796875 L 16 4.6796875 L 16 4.1796875 L 14.066406 4.1796875 z M 5.7246094 8.5644531 L 5.0117188 8.8984375 C 4.2914938 9.2363075 3.5595831 9.6073919 2.8144531 10.013672 L 2.8125 10.013672 L 2.8125 10.015625 C 2.076179 10.421875 1.3644315 10.837539 0.6796875 11.261719 L 0 11.681641 L 0.40039062 11.935547 L 0.6796875 11.761719 C 1.3644315 11.337539 2.076179 10.921875 2.8125 10.515625 L 2.8125 10.513672 L 2.8144531 10.513672 C 3.5595831 10.107392 4.2914938 9.7363075 5.0117188 9.3984375 L 5.7246094 9.0644531 L 5.7246094 8.5644531 z M 14.066406 8.8847656 C 14.066406 9.4161956 13.980896 9.7382594 13.869141 9.9433594 C 13.757386 10.148449 13.616044 10.267118 13.376953 10.392578 C 12.944005 10.619768 12.095065 10.71875 11.175781 10.71875 L 5.7246094 10.71875 L 5.7246094 11.21875 L 11.175781 11.21875 C 12.095065 11.21875 12.944005 11.119768 13.376953 10.892578 C 13.616044 10.767118 13.757386 10.648449 13.869141 10.443359 C 13.980896 10.238259 14.066406 9.9161956 14.066406 9.3847656 L 14.066406 8.8847656 z "
       transform="translate(52.000046,480)"
       id="path824" />
    <path
       style="color:#000000;font-style:normal;font-variant:normal;font-weight:normal;font-stretch:normal;font-size:medium;line-height:normal;font-family:sans-serif;font-variant-ligatures:normal;font-variant-position:normal;font-variant-caps:normal;font-variant-numeric:normal;font-variant-alternates:normal;font-feature-settings:normal;text-indent:0;text-align:start;text-decoration:none;text-decoration-line:none;text-decoration-style:solid;text-decoration-color:#000000;letter-spacing:normal;word-spacing:normal;text-transform:none;writing-mode:lr-tb;direction:ltr;text-orientation:mixed;dominant-baseline:auto;baseline-shift:baseline;text-anchor:start;white-space:normal;shape-padding:0;clip-rule:nonzero;display:inline;overflow:visible;visibility:visible;opacity:0.2;isolation:auto;mix-blend-mode:normal;color-interpolation:sRGB;color-interpolation-filters:linearRGB;solid-color:#000000;solid-opacity:1;vector-effect:none;fill:#44382f;fill-opacity:1;fill-rule:nonzero;stroke:none;stroke-width:1.00044608;stroke-linecap:butt;stroke-linejoin:miter;stroke-miterlimit:4;stroke-dasharray:none;stroke-dashoffset:0;stroke-opacity:1;color-rendering:auto;image-rendering:auto;shape-rendering:auto;text-rendering:auto;enable-background:accumulate"
       d="M 16 8.3847656 C 16 9.9284956 15.300011 11.068739 14.277344 11.605469 C 13.28569 12.125899 12.172759 12.154297 11.175781 12.154297 L 5.7226562 12.154297 L 5.7226562 12.654297 L 11.175781 12.654297 C 12.172759 12.654297 13.28569 12.625899 14.277344 12.105469 C 15.300011 11.568739 16 10.428496 16 8.8847656 L 16 8.3847656 z M 0.40039062 11.435547 L 0 11.681641 L 0.67578125 12.109375 C 1.3617973 12.543005 2.074896 12.962171 2.8125 13.369141 L 2.8125 13.371094 L 2.8144531 13.371094 C 3.5602031 13.777714 4.293818 14.146562 5.015625 14.476562 L 5.7226562 14.800781 L 5.7226562 14.300781 L 5.015625 13.976562 C 4.293818 13.646562 3.5602031 13.277714 2.8144531 12.871094 L 2.8125 12.871094 L 2.8125 12.869141 C 2.074896 12.462171 1.3617973 12.043005 0.67578125 11.609375 L 0.40039062 11.435547 z "
       transform="translate(52.000046,480)"
       id="path829" />
  </g>
</svg>
